!!!!SEGMENT: pl-wumfc--n50525_moniuszko-stanislaw--piesn-wojta-hej-chlopcy-na-lake.krn
!!!cenid: 18xx:4079
!!!COM: Moniuszko, Stanisław
!!!COM-rismID: pe30008351
!!!CDT: 1819/05/05-1872/06/04
!!!CNT: Polish
!!!OTL: Pieśń Wójta/Hej chłopcy na łąkę
!!!PDT:
!!!AGN:
!!!YEC: Copyright 2022 Narodowy Instytut Fryderyka Chopina (https://polishscores.org)
!!!YEM: License CC-BY-4.0 (https://creativecommons.org/licenses/by/4.0)
!!!SMS-siglum: PL-Wumfc
!!!SMS-shelfmark: N50525
!!!SMS-shelfwork: W
!!!SMS-variant:
!!!SMS-altvar:
!!!NIFC-rismSourceID: 1001171512
!!!NIFC-rismChildID: 1001171512
!!!NIFC-islandoraID: pl-wumfc:6714
!!!URL-pdf-islandora: https://repozytorium.nifc.pl/islandora/object/pl-wumfc%3A6714/datastream/PDF/view
!!!URL-scan: https://polish.musicsources.pl/pl/lokalizacje/galeria/druki-muzyczne/12541 @EN{Scan on Polish Music Sources Website} @PL{Skany w portalu Dziedzictwo Muzyki Polskiej w otwartym dostępie}
!!!IIIF:
!!!ONB-nifc:
!!!AIN: 1 piano 1 soprn
!!!key: C
**kern	**kern	**dynam	**kern	**text	**text	**dynam
*part2	*part2	*	*part1	*	*	*
*staff3	*staff2	*	*staff1	*	*	*
*I"Piano.	*I"Piano.	*	*I"Śpiew.	*	*	*
*Ipiano	*Ipiano	*	*Isoprn	*	*	*
*ICklav	*ICklav	*	*ICvox	*	*	*
*IGacmp	*IGacmp	*	*IGsolo	*	*	*
*>[A,B,B1,B,B2]	*>[A,B,B1,B,B2]	*	*>[A,B,B1,B,B2]	*	*	*
*>A	*>A	*	*>A	*	*	*
*clefF4	*clefG2	*	*clefG2	*	*	*
*k[]	*k[]	*	*k[]	*	*	*
*C:	*C:	*	*C:	*	*	*
*M6/8	*M6/8	*	*M6/8	*	*	*
=1	=1	=1	=1	=1	=1	=1
!!LO:TX:B:a:t=Allegro.
8cL 8G 8E 8C\	2.r	p	4r	.	.	.
8c 8G 8E 8C\	.	.	.	.	.	.
8cJ 8G 8E 8C\	.	.	8r	.	.	.
8cL 8G 8E 8C\	.	.	8r	.	.	.
8c 8G 8E 8C\	.	.	8r	.	.	.
8cJ 8G 8E 8C\	.	.	8g/	Hej	Was	.
=2!|:	=2!|:	=2!|:	=2!|:	=2!|:	=2!|:	=2!|:
*>B	*>B	*	*>B	*	*	*
*tremolo	*	*	*	*	*	*
8GL 8E 8C\	4r	.	8e/	chłop-	dziew-	.
8G 8E 8C\	.	.	8c/	-cy	-ki	.
8G 8E 8C\	8r	.	8g/	na	do	.
8G 8E 8C\	4r	.	8e/	łą-	żni-	.
8G 8E 8C\	.	.	8c/	-kę	-wa	.
8GJ 8E 8C\	8eee'\	.	8g/	i	mam	.
=3	=3	=3	=3	=3	=3	=3
8GL 8E 8C\	8ccc'\L	.	4.e/	ko-	pro-	.
8G 8E 8C\	8gg'\	.	.	.	.	.
8G 8E 8C\	8ee'\J	.	.	.	.	.
8G 8E 8C\	8cc'/L	.	8c/	-sić,	-sić,	.
8G 8E 8C\	8g'/	.	8r	.	.	.
8GJ 8E 8C\	8e'/J	.	8a/	jes-	a	.
!!LO:LB:g=original
=4	=4	=4	=4	=4	=4	=4
8AL 8F 8C\	8a 8f'/	.	8f/	-teś-	sno-	.
8A 8F 8C\	8r	.	8d/	-my	-py	.
8A 8F 8C\	8r	.	8a/	przy	zwią-	.
8A 8F 8C\	4r	.	8f/	dro-	-zy-	.
8A 8F 8C\	.	.	8d/	-żnej	-wać	.
8AJ 8F 8C\	8fff'\	.	8a/	fi-	mi	.
=5	=5	=5	=5	=5	=5	=5
8AL 8F 8C\	8ddd'\L	.	4.f/	-gu-	du-	.
8A 8F 8C\	8aa'\	.	.	.	.	.
8A 8F 8C\	8ff'\J	.	.	.	.	.
8A 8F 8C\	8dd'/L	.	8d/	-rze,	-że,	.
8A 8F 8C\	8a'/	.	8r	.	.	.
8AJ 8F 8C\	8f'/J	.	8dd\	a	i	.
=6	=6	=6	=6	=6	=6	=6
8BL 8F 8C\	8g 8d'/	.	8dd\	do-	do-	.
8B 8F 8C\	8r	.	8cc\	-syć	-syć	.
8B 8F 8C\	8r	.	8b\	tych	tych	.
8B 8F 8C\	4r	.	8b\	śpie-	pie-	.
8B 8F 8C\	.	.	8a/	-wów	-śni	.
8BJ 8F 8C\	8ggg'\	.	8g/	już	już	.
=7	=7	=7	=7	=7	=7	=7
8cL 8E 8C\	8eee'\L	.	4.ee\	do-	do-	.
8c 8E 8C\	8ccc'\	.	.	.	.	.
8c 8E 8C\	8gg'\J	.	.	.	.	.
8c 8E 8C\	8ee'\L	.	8cc\	-syć,	-syć,	.
8c 8E 8C\	8cc'\	.	8r	.	.	.
!	!	!	!LO:TX:t=P:problem:fragment tekstu wspólny dla obu zwrotek zapisany tylko raz, w połowie wysokości obu wierszy, zapis poprzedzony klamrą	!	!	!
8cJ 8E 8C\	8g'\J	.	8cc\	bo	[bo	.
*Xtremolo	*	*	*	*	*	*
!!LO:LB:g=original
=8	=8	=8	=8	=8	=8	=8
8BL 8G 8D\	4b 4g'/	.	8b\	ja	ja	.
8B 8G 8D\	.	.	8g/	wam	wam	.
8BJ 8G 8D\	8r	.	8d/	i-	i-	.
8cL 8F#X 8D\	8a 8d'/	.	8c/	-na-	-na-	.
8c 8F# 8D\	8r	.	8e 8A/	-czej	-czej	.
8cJ 8F# 8D\	8ddd'\	.	8d/	za-	za-	.
=9	=9	=9	=9	=9	=9	=9
8BL 8G'\	8bb'\L	.	8a 8G/	-wtó-	-wtó-	.
8B 8G'\	8gg'\	.	8g 8G/	-rzę	-rzę]	.
8BJ 8G'\	8dd'\J	.	8r	.	.	.
8G'\L	8b'/L	.	8r	.	.	.
8G'\J	8g'/J	.	8r	.	.	.
(8CC^/	8b-X 8e'/	.	8cc\	Kwia-	Te	.
=10	=10	=10	=10	=10	=10	=10
!	!LO:TX:i:b:t=scherzando	!	!LO:TX:i:a:t=scherzando	!	!	!
8GG/L)	8b-XL 8e'/	.	8g/	-te-	kło-	.
8C'/	8b- 8e'/	.	8e/	-czki	-sy,	.
8E'/J	8b-J 8g'/	.	8cc\	i	to	.
8G'\L	8b-L 8e'/	.	8g/	wia-	wia-	.
8c'\	8gJ 8e'/	.	8e/	-trów	-trow	.
8eJ 8c 8B-X'\	(8ccc 8cc^<\	.	8cc\	i-	i-	.
=11	=11	=11	=11	=11	=11	=11
8fL 8c 8A'\	8aa\L)	.	4.a/	-gra-	-gra-	.
8f 8c 8A'\	8ff'\	.	.	.	.	.
8fJ 8c 8A'\	8cc'\J	.	.	.	.	.
8cL 8A'\	8a'/L	.	8f/	-nie,	-nie,	.
8cJ 8A'\	8f'/J	.	8r	.	.	.
(8DD/	8cc 8f#X'/	.	8dd\	to	za-	.
!!LO:PB:g=original
=12	=12	=12	=12	=12	=12	=12
8AA/L)	8ccL 8f#X'/	.	8a/	do-	-baw-	.
8D'/	8cc 8f#'/	.	8f#X/	-bre	-ka	.
8F#X'/J	8ccJ 8a'/	.	8dd\	w pio-	dzie-	.
8A'\L	8ccL 8f#'/	.	8a/	-sen-	-cin-	.
8d'\J	8aJ 8f#'/	.	8f#/	-ce	-na	.
8f#X 8d 8c'\	(8ddd^<\	.	8dd\	pas-	i	.
=13	=13	=13	=13	=13	=13	=13
8gL 8d 8B'\	8bb\L)	.	4.b\	-tu-	mar-	.
8g 8d 8B'\	8gg'\	.	.	.	.	.
8gJ 8d 8B'\	8dd'\J	.	.	.	.	.
8dL 8B'\	8b'/L	.	8g/	-szej.	-na.	.
8dJ 8B'\	8g'/J	.	8r	.	.	.
8G'\	8g 8fn'/	.	8g/	To	To	.
=14	=14	=14	=14	=14	=14	=14
4.G 4.C\	(8gL 8e/	>	8g/	u	kło-	.
.	8a 8f/)	]	8a/	mnie	-sek	.
.	8bJ 8d'/	.	8b\	gos-	naj-	.
.	8qdd/	.	(8qdd/	.	.	.
(8C\L	8ccL 8e'/	<	8cc\)	-po-	-le-	.
8D\)	8b 8f'/	.	8b\	-darz	-pszy	.
8E'\J	8ccJ 8g'/	[[	8cc\	Mo-	Mo-	.
!!LO:LB:g=original
=15	=15	=15	=15	=15	=15	=15
*	*^	*	*	*	*	*
!LO:TX:i:a:t=P:problem:mixed beam	!	!	!	!	!	!	!
(<8F/L	([4.dd/	4.a\	>	4.dd\	-sa-	-sa-	.
8A/	.	.	.	.	.	.	.
8d>\J	.	.	]	.	.	.	.
8f>\	4dd/]	4.ryy	.	8a/	-nie,	-nie,	.
4a>\)	.	.	.	8r	.	.	.
.	8cc/)	.	.	8cc\	co	co	.
*	*v	*v	*	*	*	*	*
=16	=16	=16	=16	=16	=16	=16
4.G\	(8bL 8g/	.	8b/	kwiat-	wy-	.
.	8a 8f/)	.	8a/	-ki	-da	.
.	8gJ 8e'/	.	8g/	na	naj-	.
4.G\	8aL 8f'/	.	8a/	sian-	-wię-	.
.	8g 8e'/	.	8g/	-ko	-cej	.
.	8fJ 8d'/	.	8f/	wy-	mi	.
=17	=17	=17	=17	=17	=17	=17
*	*^	*	*	*	*	*
(8GG/L	[4.e/	8B\L	sf <	[4.e/	-su-	ziar-	.
8AA/	.	8c\	.	.	.	.	.
8GG/J	.	8B\J	.	.	.	.	.
8FF/L	8e/]	8A\L	.	8e/]	.	.	.
8EE/	(8e/L	8G\	.	8e/	-szy!	-na!	.
8DD/J)	8f/J	8F\J	[	8f/	to	to	.
*	*v	*v	*	*	*	*	*
=18	=18	=18	=18	=18	=18	=18
.	(8qE/	.	.	.	.	.
(<(4CC/	8g/L)	f	8g/	u	kło-	.
!	!	!	!	!	!	!LO:DY:a
.	8a 8f/	.	8a/	mnie	-sek	<
8GG/)	8bJ 8g 8d/	.	8b\	gos-	naj-	.
8CL 8CC/	8ccL 8g 8e/	.	8cc\	-po-	-le-	.
8D 8DD/	8b 8g 8f/	.	8b\	-darz	-pszy	.
8EJ 8EE/	8ccJ 8g 8e/	.	8cc\	Mo-	Mo-	[[
!!LO:LB:g=original
=19	=19	=19	=19	=19	=19	=19
!	!	!	!	!	!	!LO:DY:a
8FF/L	4.ee 4.a 4.g\	>	4.ee\	-sa-	-sa-	>
8AA/	.	.	.	.	.	.
8D/J	.	.	.	.	.	.
8F\L	4dd 4a 4f/	.	8dd\	-nie,	-nie,	.
8A\	.	.	8r	.	.	]
8c\J)	8cc 8a\)	]]	8cc\	co	co	.
=20	=20	=20	=20	=20	=20	=20
!	!LO:TX:i:b:t=riten.	!	!LO:TX:i:a:t=riten.	!	!	!
8G\	8bL 8d^/	.	8b^>/	kwiat-	wy-	.
8r	8a 8d 8c^/	.	8a^>/	-ki	-da	.
8r	8gJ 8d 8B^/	.	8g^>/	na	naj-	.
[<4.GG 4.GGG\	8fL 8c 8A<^</	.	8f^>/	sian-	-wię-	.
.	8e 8c 8G<^</	.	8e^>/	-ko	-cej	.
.	8dJ 8G< 8F<^</	.	8d^>/	wy-	mi	.
=21	=21	=21	=21	=21	=21	=21
8GG] 8CC\	8c 8E</	.	8c/	-su-	ziar-	.
!	!LO:TX:B:b:t=a tempo.	!	!	!	!	!
8GL 8E 8C\	8r	ff	8c/	-szy.	-na.	.
8GJ 8E 8C\	8r	.	8r	.	.	.
8GL 8E 8C\	4r	.	4r	.	.	.
8G 8E 8C\	.	.	.	.	.	.
8GJ 8E 8C\	8ccc'\	.	8r	.	.	.
=22	=22	=22	=22	=22	=22	=22
*tremolo	*	*	*	*	*	*
8GL 8F 8C\	(8bb\L	.	2.r	.	.	.
8G 8F 8C\	8gg\)	.	.	.	.	.
8G 8F 8C\	8ddd'\J	.	.	.	.	.
8G 8F 8C\	8bb'\L	.	.	.	.	.
8G 8F 8C\	8gg'\	.	.	.	.	.
8GJ 8F 8C\	8ddd'\J	.	.	.	.	.
!!LO:LB:g=original
=23	=23	=23	=23	=23	=23	=23
8GL 8E 8C\	(8ccc\L	.	2.r	.	.	.
8G 8E 8C\	8gg\)	.	.	.	.	.
8G 8E 8C\	8eee'\J	.	.	.	.	.
8G 8E 8C\	8ccc'\L	.	.	.	.	.
8G 8E 8C\	8gg'\	.	.	.	.	.
8GJ 8E 8C\	8ee'\J	.	.	.	.	.
*Xtremolo	*	*	*	*	*	*
=24	=24	=24	=24	=24	=24	=24
8AL 8F 8C\	(8ff\L	.	2.r	.	.	.
8A 8F 8C\	8dd\)	.	.	.	.	.
8AJ 8F 8C\	8aa'\J	.	.	.	.	.
8BL 8G 8F 8C\	8gg'\L	.	.	.	.	.
8B 8G 8F 8C\	8ff'\	.	.	.	.	.
8BJ 8G 8F 8C\	8dd'\J	.	.	.	.	.
=25	=25	=25	=25	=25	=25	=25
*>B1	*>B1	*	*>B1	*	*	*
8cL 8G 8E 8C\	4cc'\	.	4r	.	.	.
8c 8G 8E 8C\	.	.	.	.	.	.
8cJ 8G 8E 8C\	8r	.	8r	.	.	.
8cL 8G 8E 8C\	4r	.	4r	.	.	.
8c 8G 8E 8C\	.	.	.	.	.	.
8cJ 8G 8E 8C\	8r	.	8g/	Was	.	.
=26:|!	=26:|!	=26:|!	=26:|!	=26:|!	=26:|!	=26:|!
*>B2	*>B2	*	*>B2	*	*	*
4c 4G 4E 4C'\	4cc'\	.	2.r	.	.	.
8r	8r	.	.	.	.	.
4r	4r	.	.	.	.	.
8r	8r	.	.	.	.	.
==	==	==	==	==	==	==
*-	*-	*-	*-	*-	*-	*-
!!!system-decoration: (p1){(p2)}
!!!RDF**kern: > = above
!!!RDF**kern: < = below
!!!ENC: Berenika Jozajtis
!!!END: 2022-08-19
!!!ENC: Kamil Watkowski
!!!END: 2022-09-22
